src/svg/radar-outline.svg

<svg version="1.2" baseProfile="tiny" xmlns="http://www.w3.org/2000/svg" width="24" height="24" viewBox="0 0 24 24"><path d="M11.997 4.5c-4.685 0-8.497 3.812-8.497 8.5s3.813 8.5 8.5 8.5c4.688 0 8.5-3.812 8.5-8.5s-3.812-8.5-8.503-8.5zm.003 15c-3.584 0-6.5-2.916-6.5-6.5s2.914-6.5 6.5-6.5c3.584 0 6.5 2.916 6.5 6.5s-2.916 6.5-6.5 6.5zM15.348 12.031l.152-.031h.879c-.383-1.677-1.699-2.995-3.379-3.378v.878c0 .551-.449 1-1 1-.497 0-.892-.371-.969-.846l-.031-.154v-.88c-1.678.382-2.997 1.702-3.38 3.38h.88l.153.031c.476.076.847.472.847.969s-.371.893-.846.969l-.154.031h-.878c.384 1.677 1.702 2.995 3.378 3.379v-.879l.031-.154c.077-.476.472-.846.969-.846s.893.371.969.848l.031.152v.879c1.677-.383 2.996-1.702 3.379-3.379h-.879l-.152-.031c-.477-.076-.848-.472-.848-.969s.371-.893.848-.969zm-.446 2.867c-.264.399-.604.74-1.004 1.002-.256-.81-1.004-1.401-1.897-1.401s-1.642.592-1.898 1.401c-.4-.262-.74-.603-1.003-1.002.81-.256 1.401-1.006 1.401-1.898 0-.895-.592-1.643-1.402-1.898.263-.399.603-.74 1.004-1.002.256.81 1.005 1.401 1.898 1.401.894 0 1.644-.593 1.899-1.403.399.264.74.604 1.002 1.004-.81.256-1.401 1.006-1.401 1.898-.001.893.591 1.643 1.401 1.898z"/></svg>

<?xml version="1.0" encoding="iso-8859-1"?>
<!-- Generator: Adobe Illustrator 16.2.1, SVG Export Plug-In . SVG Version: 6.00 Build 0)  -->
<svg version="1.2" baseProfile="tiny" id="Layer_1" xmlns="http://www.w3.org/2000/svg" xmlns:xlink="http://www.w3.org/1999/xlink"
	 x="0px" y="0px" width="24px" height="24px" viewBox="0 0 24 24" xml:space="preserve">
<g>
	<path d="M11.997,4.5C7.312,4.5,3.5,8.312,3.5,13s3.813,8.5,8.5,8.5c4.688,0,8.5-3.812,8.5-8.5S16.688,4.5,11.997,4.5z M12,19.5
		c-3.584,0-6.5-2.916-6.5-6.5S8.414,6.5,12,6.5c3.584,0,6.5,2.916,6.5,6.5S15.584,19.5,12,19.5z"/>
	<path d="M15.348,12.031C15.398,12.021,15.445,12,15.5,12h0.879C15.996,10.323,14.68,9.005,13,8.622V9.5c0,0.551-0.449,1-1,1
		c-0.497,0-0.892-0.371-0.969-0.846C11.022,9.602,11,9.555,11,9.5V8.62C9.322,9.002,8.003,10.322,7.62,12H8.5
		c0.054,0,0.101,0.021,0.153,0.031C9.129,12.107,9.5,12.503,9.5,13s-0.371,0.893-0.846,0.969C8.602,13.979,8.555,14,8.5,14H7.622
		c0.384,1.677,1.702,2.995,3.378,3.379V16.5c0-0.055,0.022-0.102,0.031-0.154C11.108,15.87,11.503,15.5,12,15.5
		s0.893,0.371,0.969,0.848C12.979,16.398,13,16.445,13,16.5v0.879c1.677-0.383,2.996-1.702,3.379-3.379H15.5
		c-0.055,0-0.102-0.021-0.152-0.031C14.871,13.893,14.5,13.497,14.5,13S14.871,12.107,15.348,12.031z M14.902,14.898
		c-0.264,0.399-0.604,0.74-1.004,1.002c-0.256-0.81-1.004-1.401-1.897-1.401c-0.893,0-1.642,0.592-1.898,1.401
		c-0.4-0.262-0.74-0.603-1.003-1.002c0.81-0.256,1.401-1.006,1.401-1.898c0-0.895-0.592-1.643-1.402-1.898
		c0.263-0.399,0.603-0.74,1.004-1.002c0.256,0.81,1.005,1.401,1.898,1.401c0.894,0,1.644-0.593,1.899-1.403
		c0.399,0.264,0.74,0.604,1.002,1.004c-0.81,0.256-1.401,1.006-1.401,1.898C13.5,13.893,14.092,14.643,14.902,14.898z"/>
</g>
</svg>
